Numix-Circle/48x48/apps/frescobaldi.svg

<svg xmlns="http://www.w3.org/2000/svg" width="48" viewBox="0 0 13.546667 13.546667" height="48">
 <defs>
  <linearGradient id="linearGradient4033" x1="-27" x2="-24" gradientUnits="userSpaceOnUse">
   <stop style="stop-color:#0cbe82;stop-opacity:1"/>
   <stop offset="1" style="stop-color:#0dd18e;stop-opacity:1"/>
  </linearGradient>
  <radialGradient id="radialGradient4204-6" cx="24.5" cy="24.5" r="3.5" gradientUnits="userSpaceOnUse">
   <stop style="stop-color:#f0e598;stop-opacity:1"/>
   <stop offset="1" style="stop-color:#fce11a;stop-opacity:1"/>
  </radialGradient>
  <radialGradient id="radialGradient4122" gradientUnits="userSpaceOnUse" cx="14" cy="10" r="15.535" gradientTransform="matrix(0.24120755,-0.10238654,0.10238654,0.24120755,2.3725625,5.7946693)">
   <stop style="stop-color:#ffabcb;stop-opacity:1"/>
   <stop offset="1" style="stop-color:#ff619c;stop-opacity:1"/>
  </radialGradient>
  <radialGradient id="radialGradient4125" gradientUnits="userSpaceOnUse" cx="21" cy="8" r="15" gradientTransform="matrix(0.26340741,0,0,0.26340741,1.2417778,4.6660743)">
   <stop style="stop-color:#fe1058;stop-opacity:1"/>
   <stop offset="1" style="stop-color:#fe4c82;stop-opacity:1"/>
  </radialGradient>
 </defs>
 <g>
  <path d="m 25 2 c -12.703 0 -23 10.297 -23 23 0 6.367 2.601 12.12 6.781 16.281 4.085 3.712 9.514 5.969 15.469 5.969 c 12.703 0 23 -10.297 23 -23 0 -5.954 -2.256 -11.384 -5.969 -15.469 c -4.165 -4.181 -9.914 -6.781 -16.281 -6.781 z m 16.281 6.781 c 3.854 4.113 6.219 9.637 6.219 15.719 c 0 12.703 -10.297 23 -23 23 c -6.081 0 -11.606 -2.364 -15.719 -6.219 4.16 4.144 9.883 6.719 16.219 6.719 12.703 0 23 -10.297 23 -23 0 -6.335 -2.575 -12.06 -6.719 -16.219 z" transform="scale(0.28222223,0.28222223)" style="fill:#000;opacity:0.05;fill-opacity:1;stroke:none"/>
  <path d="m 41.28 8.781 c 3.712 4.085 5.969 9.514 5.969 15.469 c 0 12.703 -10.297 23 -23 23 -5.954 0 -11.384 -2.256 -15.469 -5.969 c 4.113 3.854 9.637 6.219 15.719 6.219 c 12.703 0 23 -10.297 23 -23 0 -6.081 -2.364 -11.606 -6.219 -15.719 z" transform="scale(0.28222223,0.28222223)" style="fill:#000;opacity:0.1;fill-opacity:1;stroke:none"/>
  <path transform="matrix(4.3274074,0,0,3.2455556,117.19278,-35.348334)" d="m -24 13 a 1.5 2 0 1 1 -3 0 1.5 2 0 1 1 3 0 z" style="fill:#000;opacity:0.2;fill-opacity:1;stroke:none"/>
 </g>
 <g>
  <path d="m -24 13 a 1.5 2 0 1 1 -3 0 1.5 2 0 1 1 3 0 z" transform="matrix(0,-4.3274075,3.2455556,0,-35.418894,-103.57556)" style="fill:url(#linearGradient4033);fill-opacity:1;stroke:none"/>
  <path d="m 40.03 7.531 c 3.712 4.085 5.969 9.514 5.969 15.469 c 0 12.703 -10.297 23 -23 23 c -5.954 0 -11.384 -2.256 -15.469 -5.969 c 4.178 4.291 10.01 6.969 16.469 6.969 c 12.703 0 23 -10.297 23 -23 c 0 -6.462 -2.677 -12.291 -6.969 -16.469 z" transform="scale(0.28222223,0.28222223)" style="fill:#000;opacity:0.1;fill-opacity:1;stroke:none"/>
  <path d="M 25 10 L 22.90625 14.90625 L 19 11 L 19.28125 16 L 14 14 L 16 19.28125 L 11 19 L 14.875 22.875 L 10 24.9375 L 14.90625 27.09375 L 11 31 L 16 30.71875 L 14 36 L 19.28125 34 L 19 39 L 22.90625 35.09375 L 25 40 L 27.0625 35.21875 L 30.59375 39 L 30.53125 33.9375 L 36 36 L 34 30.71875 L 39 31 L 35.125 27.125 L 40 25.0625 L 35.09375 22.90625 L 39 19 L 34 19.28125 L 36 14 L 30.71875 16 L 31 11 L 27.09375 14.90625 L 25 10 z " transform="scale(0.28222223,0.28222223)" style="fill:#000;fill-opacity:0.098;stroke:none;fill-rule:nonzero"/>
  <path d="m 8.354 10.724 -1.58 -1.693 -1.693 1.693 0.141 -2.399 -2.399 0.141 1.693 -1.693 -1.693 -1.693 2.399 0.141 -0.141 -2.399 1.693 1.693 1.693 -1.693 -0.141 2.399 2.399 -0.141 -1.693 1.693 1.693 1.693 -2.399 -0.141 z" style="fill:url(#radialGradient4125);fill-opacity:1;stroke:none;fill-rule:nonzero"/>
  <path d="m 7.479 3.81 -0.706 0.706 -0.309 -0.309 -0.256 0.591 -0.767 -0.282 -0.265 -0.106 0.044 0.811 -0.811 -0.044 0.106 0.265 0.282 0.767 -0.6 0.247 l 0.317 0.317 l -0.697 0.697 0.388 0.176 0.591 0.256 -0.168 0.459 0.591 -0.035 -0.079 1.385 0.3 -0.115 0.767 -0.282 l 0.088 0.194 0.476 -0.476 0.855 0.917 0.009 -0.009 0.265 -0.626 0.432 0.159 -0.009 -1.147 1.173 0.071 l -0.185 -0.494 0.6 -0.247 -0.882 -0.882 0.476 -0.476 -0.194 -0.088 0.282 -0.767 0.115 -0.3 -1.385 0.079 0.035 -0.591 -0.459 0.168 -0.256 -0.591 -0.168 -0.397 z" style="fill:#000;fill-opacity:0.098;stroke:none;fill-rule:nonzero"/>
  <path d="m 9.878 9.878 -2.258 -0.847 -0.847 1.976 -0.847 -1.976 -2.258 0.847 0.847 -2.258 -1.976 -0.861 1.976 -0.832 -0.847 -2.258 2.258 0.847 0.847 -1.976 0.847 1.976 2.258 -0.847 -0.847 2.258 1.976 0.861 -1.976 0.832 z" style="fill:url(#radialGradient4122);fill-opacity:1;stroke:none;fill-rule:nonzero"/>
  <path transform="matrix(0.64507938,0,0,0.64507938,-8.8900004,-8.8900005)" d="m 28 24.5 a 3.5 3.5 0 1 1 -7 0 3.5 3.5 0 1 1 7 0 z" style="fill:#000;fill-opacity:0.098;stroke:none;fill-rule:nonzero"/>
  <path d="m 28 24.5 a 3.5 3.5 0 1 1 -7 0 3.5 3.5 0 1 1 7 0 z" transform="matrix(0.64507938,0,0,0.64507938,-9.0311114,-9.0311115)" style="fill:url(#radialGradient4204-6);fill-opacity:1;stroke:none;fill-rule:nonzero"/>
  <path d="m 6.245 8.242 c -0.195 -0.09 -0.266 -0.331 -0.275 -0.583 c -0.006 -0.187 0.002 -0.23 0.038 0.035 0.035 0.257 0.273 0.54 0.5 0.54 0.368 0 0.669 -0.385 0.669 -0.862 0 -0.117 -0.036 -0.177 -0.256 -0.187 l -0.256 -0.013 0.246 -0.029 c 0.286 -0.025 0.256 -0.215 0.288 -0.527 0.023 -0.274 0.06 -0.568 0.083 -0.653 0.037 -0.141 -0.003 -0.163 -0.445 -0.249 -0.589 -0.115 -0.883 -0.064 -1.119 0.193 -0.357 0.39 -0.102 0.913 0.45 0.923 c 0.256 0.004 0.274 0.015 0.144 0.084 c -0.341 0.18 -0.84 -0.192 -0.84 -0.627 c 0 -0.672 0.637 -0.965 1.474 -0.677 0.355 0.122 0.365 0.121 0.669 -0.054 0.238 -0.138 0.327 -0.158 0.389 -0.09 0.124 0.135 -0.046 0.311 -0.351 0.364 -0.228 0.04 -0.26 0.073 -0.294 0.301 -0.021 0.141 -0.02 0.422 0.002 0.624 0.078 0.392 0.129 0.371 0.464 0.385 c -0.316 0.051 -0.434 0.241 -0.488 0.443 -0.142 0.531 -0.674 0.852 -1.093 0.658 z" style="stroke-dasharray:none;stroke-opacity:1;fill:#1a1a1a;stroke-miterlimit:4.5;stroke:#1a1a1a;stroke-linecap:round;stroke-linejoin:round;stroke-width:0.109"/>
 </g>
</svg>

<svg xmlns="http://www.w3.org/2000/svg" viewBox="0 0 48 48">
 <defs>
  <linearGradient id="linearGradient3764" x1="1" x2="47" gradientUnits="userSpaceOnUse" gradientTransform="matrix(0,-1,1,0,-1.5e-6,47.999998)">
   <stop style="stop-color:#0cbe82;stop-opacity:1"/>
   <stop offset="1" style="stop-color:#0dd18f;stop-opacity:1"/>
  </linearGradient>
  <radialGradient id="radialGradient4125" gradientUnits="userSpaceOnUse" cx="21" cy="8" r="15" gradientTransform="matrix(0.26340741,0,0,0.26340741,1.2417778,4.6660743)">
   <stop style="stop-color:#fe1058;stop-opacity:1"/>
   <stop offset="1" style="stop-color:#fe4c82;stop-opacity:1"/>
  </radialGradient>
  <radialGradient id="radialGradient4122" gradientUnits="userSpaceOnUse" cx="14" cy="10" r="15.535" gradientTransform="matrix(0.24120755,-0.10238654,0.10238654,0.24120755,2.3725625,5.7946693)">
   <stop style="stop-color:#ffabcb;stop-opacity:1"/>
   <stop offset="1" style="stop-color:#ff619c;stop-opacity:1"/>
  </radialGradient>
  <radialGradient id="radialGradient4204-6" cx="24.5" cy="24.5" r="3.5" gradientUnits="userSpaceOnUse" gradientTransform="matrix(0.64507938,0,0,0.64507938,-9.0311114,-9.0311115)">
   <stop style="stop-color:#f0e598;stop-opacity:1"/>
   <stop offset="1" style="stop-color:#fce11a;stop-opacity:1"/>
  </radialGradient>
 </defs>
 <g>
  <path d="m 36.31 5 c 5.859 4.062 9.688 10.831 9.688 18.5 c 0 12.426 -10.07 22.5 -22.5 22.5 c -7.669 0 -14.438 -3.828 -18.5 -9.688 c 1.037 1.822 2.306 3.499 3.781 4.969 c 4.085 3.712 9.514 5.969 15.469 5.969 c 12.703 0 23 -10.298 23 -23 c 0 -5.954 -2.256 -11.384 -5.969 -15.469 c -1.469 -1.475 -3.147 -2.744 -4.969 -3.781 z m 4.969 3.781 c 3.854 4.113 6.219 9.637 6.219 15.719 c 0 12.703 -10.297 23 -23 23 c -6.081 0 -11.606 -2.364 -15.719 -6.219 c 4.16 4.144 9.883 6.719 16.219 6.719 c 12.703 0 23 -10.298 23 -23 c 0 -6.335 -2.575 -12.06 -6.719 -16.219 z" style="opacity:0.05"/>
  <path d="m 41.28 8.781 c 3.712 4.085 5.969 9.514 5.969 15.469 c 0 12.703 -10.297 23 -23 23 c -5.954 0 -11.384 -2.256 -15.469 -5.969 c 4.113 3.854 9.637 6.219 15.719 6.219 c 12.703 0 23 -10.298 23 -23 c 0 -6.081 -2.364 -11.606 -6.219 -15.719 z" style="opacity:0.1"/>
  <path d="m 31.25 2.375 c 8.615 3.154 14.75 11.417 14.75 21.13 c 0 12.426 -10.07 22.5 -22.5 22.5 c -9.708 0 -17.971 -6.135 -21.12 -14.75 a 23 23 0 0 0 44.875 -7 a 23 23 0 0 0 -16 -21.875 z" style="opacity:0.2"/>
 </g>
 <g>
  <path d="m 24 1 c 12.703 0 23 10.297 23 23 c 0 12.703 -10.297 23 -23 23 -12.703 0 -23 -10.297 -23 -23 0 -12.703 10.297 -23 23 -23 z" style="fill:url(#linearGradient3764);fill-opacity:1"/>
 </g>
 <g>
  <path d="m 40.03 7.531 c 3.712 4.084 5.969 9.514 5.969 15.469 0 12.703 -10.297 23 -23 23 c -5.954 0 -11.384 -2.256 -15.469 -5.969 4.178 4.291 10.01 6.969 16.469 6.969 c 12.703 0 23 -10.298 23 -23 0 -6.462 -2.677 -12.291 -6.969 -16.469 z" style="opacity:0.1"/>
 </g>
 <path d="m 25 10 -2.094 4.906 -3.906 -3.906 l 0.281 5 -5.281 -2 2 5.281 -5 -0.281 3.875 3.875 -4.875 2.063 4.906 2.156 -3.906 3.906 5 -0.281 -2 5.281 l 5.281 -2 l -0.281 5 3.906 -3.906 2.094 4.906 2.063 -4.781 3.531 3.781 -0.063 -5.063 5.469 2.062 -2 -5.281 5 0.281 -3.875 -3.875 4.875 -2.063 -4.906 -2.156 3.906 -3.906 -5 0.281 l 2 -5.281 -5.281 2 0.281 -5 -3.906 3.906 -2.094 -4.906" style="fill:#000;fill-opacity:0.098;stroke:none;fill-rule:nonzero"/>
 <g transform="matrix(3.543307,0,0,3.543307,0.00354353,-9.9999994e-8)">
  <path d="M 8.354,10.724 6.774,9.031 5.081,10.724 5.222,8.325 2.823,8.466 4.516,6.773 2.823,5.08 5.222,5.221 5.081,2.822 6.774,4.515 8.467,2.822 8.326,5.221 10.725,5.08 9.032,6.773 10.725,8.466 8.326,8.325 Z" style="fill:url(#radialGradient4125);fill-opacity:1;stroke:none;fill-rule:nonzero"/>
  <g>
   <path d="M 7.479,3.81 6.773,4.516 6.464,4.207 6.208,4.798 5.441,4.516 5.176,4.41 5.22,5.221 4.409,5.177 4.515,5.442 4.797,6.209 4.197,6.456 4.514,6.773 3.817,7.47 4.205,7.646 4.796,7.902 4.628,8.361 5.219,8.326 5.14,9.711 5.44,9.596 6.207,9.314 6.295,9.508 6.771,9.032 7.626,9.949 7.635,9.94 7.9,9.314 8.332,9.473 8.323,8.326 9.496,8.397 9.311,7.903 9.911,7.656 9.029,6.774 9.505,6.298 9.311,6.21 9.593,5.443 9.708,5.143 8.323,5.222 8.358,4.631 7.899,4.799 7.643,4.208 7.475,3.811 Z" style="fill:#000;fill-opacity:0.098;stroke:none;fill-rule:nonzero"/>
   <path d="M 9.878,9.878 7.62,9.031 6.773,11.007 5.926,9.031 3.668,9.878 4.515,7.62 2.539,6.759 4.515,5.927 3.668,3.669 5.926,4.516 6.773,2.54 7.62,4.516 9.878,3.669 9.031,5.927 11.007,6.788 9.031,7.62 Z" style="fill:url(#radialGradient4122);fill-opacity:1;stroke:none;fill-rule:nonzero"/>
   <path d="m 9.172 6.914 a 2.258 2.258 0 0 1 -4.516 0 2.258 2.258 0 1 1 4.516 0 z" style="fill:#000;fill-opacity:0.098;stroke:none;fill-rule:nonzero"/>
   <path d="m 9.03 6.773 a 2.258 2.258 0 0 1 -4.516 0 2.258 2.258 0 1 1 4.516 0 z" style="fill:url(#radialGradient4204-6);fill-opacity:1;stroke:none;fill-rule:nonzero"/>
   <path d="M 6.245,8.242 C 6.05,8.152 5.979,7.911 5.97,7.659 5.964,7.472 5.972,7.429 6.008,7.694 c 0.035,0.257 0.273,0.54 0.5,0.54 0.368,0 0.669,-0.385 0.669,-0.862 0,-0.117 -0.036,-0.177 -0.256,-0.187 L 6.665,7.172 6.911,7.143 C 7.197,7.118 7.167,6.928 7.199,6.616 7.222,6.342 7.259,6.048 7.282,5.963 7.319,5.822 7.279,5.8 6.837,5.714 6.248,5.599 5.954,5.65 5.718,5.907 5.361,6.297 5.616,6.82 6.168,6.83 6.424,6.834 6.442,6.845 6.312,6.914 5.971,7.094 5.472,6.722 5.472,6.287 5.472,5.615 6.109,5.322 6.946,5.61 7.301,5.732 7.311,5.731 7.615,5.556 7.853,5.418 7.942,5.398 8.004,5.466 8.128,5.601 7.958,5.777 7.653,5.83 7.425,5.87 7.393,5.903 7.359,6.131 7.338,6.272 7.339,6.553 7.361,6.755 7.439,7.147 7.49,7.126 7.825,7.14 7.509,7.191 7.391,7.381 7.337,7.583 7.195,8.114 6.663,8.435 6.244,8.241 Z" style="stroke-dasharray:none;stroke-opacity:1;fill:#1a1a1a;stroke-miterlimit:4.5;stroke:#1a1a1a;stroke-linecap:round;stroke-linejoin:round;stroke-width:0.109"/>
  </g>
 </g>
</svg>
